icons/modern/nauseated-face.svg

<svg width="32" height="32" viewBox="0 0 32 32" fill="none" xmlns="http://www.w3.org/2000/svg">
	<g clip-path="url(#clip0_31_111)">
		<path d="M15.9989 29.9978C25.3333 29.9978 29.9978 23.7303 29.9978 15.9989C29.9978 8.26751 25.3333 2 15.9989 2C6.66443 2 2 8.26751 2 15.9989C2 23.7303 6.66443 29.9978 15.9989 29.9978Z" fill="url(#paint0_radial_31_111)" />
		<path d="M15.9989 29.9978C25.3333 29.9978 29.9978 23.7303 29.9978 15.9989C29.9978 8.26751 25.3333 2 15.9989 2C6.66443 2 2 8.26751 2 15.9989C2 23.7303 6.66443 29.9978 15.9989 29.9978Z" fill="url(#paint1_radial_31_111)" />
		<path d="M15.9989 29.9978C25.3333 29.9978 29.9978 23.7303 29.9978 15.9989C29.9978 8.26751 25.3333 2 15.9989 2C6.66443 2 2 8.26751 2 15.9989C2 23.7303 6.66443 29.9978 15.9989 29.9978Z" fill="url(#paint2_radial_31_111)" fill-opacity="0.6" />
		<path fill="url(#paint3_radial_31_111)" d="M4 16a5 5 0 1 0 10 0a5 5 0 1 0 -10 0" />
		<path fill="url(#paint4_radial_31_111)" d="M15 16.5a4.5 4.5 0 1 0 9 0a4.5 4.5 0 1 0 -9 0" />
		<path d="M10.5 19C12.9853 19 15 16.9853 15 14.5C15 12.0147 12.9853 10 10.5 10C8.01472 10 6 12.0147 6 14.5C6 16.9853 8.01472 19 10.5 19Z" fill="white" />
		<path d="M21.5 19C23.9853 19 26 16.9853 26 14.5C26 12.0147 23.9853 10 21.5 10C19.0147 10 17 12.0147 17 14.5C17 16.9853 19.0147 19 21.5 19Z" fill="white" />
		<path d="M12 17C13.1046 17 14 16.1046 14 15C14 13.8954 13.1046 13 12 13C10.8954 13 10 13.8954 10 15C10 16.1046 10.8954 17 12 17Z" fill="url(#paint5_linear_31_111)" />
		<path d="M20 17C21.1046 17 22 16.1046 22 15C22 13.8954 21.1046 13 20 13C18.8954 13 18 13.8954 18 15C18 16.1046 18.8954 17 20 17Z" fill="url(#paint6_linear_31_111)" />
		<path d="M10.5 5.5C10.5 5.5 10 8.5 6.5 8.5" stroke="url(#paint7_linear_31_111)" stroke-width="1.25" stroke-linecap="round" stroke-linejoin="round" />
		<path d="M10.5 5.5C10.5 5.5 10 8.5 6.5 8.5" stroke="url(#paint8_radial_31_111)" stroke-width="1.25" stroke-linecap="round" stroke-linejoin="round" />
		<path d="M21.5 5.5C21.5 5.5 22 8.5 25.5 8.5" stroke="url(#paint9_radial_31_111)" stroke-width="1.25" stroke-linecap="round" stroke-linejoin="round" />
		<line x1="14" y1="22" x2="18" y2="22" stroke="url(#paint10_linear_31_111)" stroke-width="2" stroke-linecap="round">
		</line>
		<path d="M10 19C11.1667 19 13 19.6 13 22C13 24.4 11.1667 25 10 25" stroke="url(#paint11_radial_31_111)" stroke-width="2" stroke-linecap="round" />
		<path d="M22 19C20.8333 19 19 19.6 19 22C19 24.4 20.8333 25 22 25" stroke="url(#paint12_radial_31_111)" stroke-width="2" stroke-linecap="round" />
	</g>
	<defs>
		<radialGradient id="paint0_radial_31_111" cx="0" cy="0" r="1" gradientUnits="userSpaceOnUse" gradientTransform="translate(19 7) rotate(100.923) scale(29.0258)">
			<stop stop-color="#00F397">
			</stop>
			<stop offset="0.493469" stop-color="#00D26A">
			</stop>
			<stop offset="1" stop-color="#8D65C5">
			</stop>
		</radialGradient>
		<radialGradient id="paint1_radial_31_111" cx="0" cy="0" r="1" gradientUnits="userSpaceOnUse" gradientTransform="translate(16 12.5) rotate(90) scale(19.5)">
			<stop offset="0.81119" stop-color="#A7A1F6" stop-opacity="0">
			</stop>
			<stop offset="0.972655" stop-color="#A092FF">
			</stop>
		</radialGradient>
		<radialGradient id="paint2_radial_31_111" cx="0" cy="0" r="1" gradientUnits="userSpaceOnUse" gradientTransform="translate(18 14) rotate(135) scale(41.0122)">
			<stop offset="0.314853" stop-opacity="0">
			</stop>
			<stop offset="1">
			</stop>
		</radialGradient>
		<radialGradient id="paint3_radial_31_111" cx="0" cy="0" r="1" gradientUnits="userSpaceOnUse" gradientTransform="translate(12.8889 12.1111) rotate(135) scale(9.74236 5.04232)">
			<stop stop-color="#392108">
			</stop>
			<stop offset="1" stop-color="#C87928" stop-opacity="0">
			</stop>
		</radialGradient>
		<radialGradient id="paint4_radial_31_111" cx="0" cy="0" r="1" gradientUnits="userSpaceOnUse" gradientTransform="translate(23 13) rotate(135) scale(8.13173 4.59049)">
			<stop stop-color="#392108">
			</stop>
			<stop offset="1" stop-color="#C87928" stop-opacity="0">
			</stop>
		</radialGradient>
		<linearGradient id="paint5_linear_31_111" x1="20.6154" y1="13" x2="19.9265" y2="17.0302" gradientUnits="userSpaceOnUse">
			<stop stop-color="#553B3E">
			</stop>
			<stop offset="1" stop-color="#3D2432">
			</stop>
		</linearGradient>
		<linearGradient id="paint6_linear_31_111" x1="20.6154" y1="13" x2="19.9265" y2="17.0302" gradientUnits="userSpaceOnUse">
			<stop stop-color="#553B3E">
			</stop>
			<stop offset="1" stop-color="#3D2432">
			</stop>
		</linearGradient>
		<linearGradient id="paint7_linear_31_111" x1="9.5" y1="5" x2="9.5" y2="6.5" gradientUnits="userSpaceOnUse">
			<stop offset="0.0299084" stop-color="#524049">
			</stop>
			<stop offset="1" stop-color="#4A2C42">
			</stop>
		</linearGradient>
		<radialGradient id="paint8_radial_31_111" cx="0" cy="0" r="1" gradientUnits="userSpaceOnUse" gradientTransform="translate(7 5) rotate(54.4623) scale(4.30116)">
			<stop offset="0.541667" stop-color="#493032">
			</stop>
			<stop offset="0.806723" stop-color="#5E445A">
			</stop>
			<stop offset="0.955326" stop-color="#4A2C42">
			</stop>
		</radialGradient>
		<radialGradient id="paint9_radial_31_111" cx="0" cy="0" r="1" gradientUnits="userSpaceOnUse" gradientTransform="translate(25 5) rotate(125.538) scale(4.30116)">
			<stop stop-color="#C2B4B5">
			</stop>
			<stop offset="0.887405" stop-color="#462B45">
			</stop>
			<stop offset="1" stop-color="#4A2C42">
			</stop>
		</radialGradient>
		<linearGradient id="paint10_linear_31_111" x1="16" y1="21" x2="16" y2="23" gradientUnits="userSpaceOnUse">
			<stop stop-color="#4E3F45">
			</stop>
			<stop offset="0.212208" stop-color="#5F4D56">
			</stop>
			<stop offset="0.95703" stop-color="#51275A">
			</stop>
		</linearGradient>
		<radialGradient id="paint11_radial_31_111" cx="0" cy="0" r="1" gradientUnits="userSpaceOnUse" gradientTransform="translate(10 22) scale(4)">
			<stop offset="0.509095" stop-color="#3E3537">
			</stop>
			<stop offset="0.707019" stop-color="#523A4F">
			</stop>
			<stop offset="1" stop-color="#6A5763">
			</stop>
		</radialGradient>
		<radialGradient id="paint12_radial_31_111" cx="0" cy="0" r="1" gradientUnits="userSpaceOnUse" gradientTransform="translate(22 22) rotate(-180) scale(4)">
			<stop offset="0.509095" stop-color="#3E3537">
			</stop>
			<stop offset="0.707019" stop-color="#523A4F">
			</stop>
			<stop offset="1" stop-color="#6A5763">
			</stop>
		</radialGradient>
		<clipPath id="clip0_31_111">
			<path fill="white" d="M0 0h32v32H0Z" />
		</clipPath>
	</defs>
</svg>

<svg width="32" height="32" fill="none" xmlns="http://www.w3.org/2000/svg"><g clip-path="url(#a)"><path d="M15.999 29.998c9.334 0 13.999-6.268 13.999-14 0-7.73-4.665-13.998-14-13.998C6.665 2 2 8.268 2 15.999c0 7.731 4.664 13.999 13.999 13.999Z" fill="url(#b)"/><path d="M15.999 29.998c9.334 0 13.999-6.268 13.999-14 0-7.73-4.665-13.998-14-13.998C6.665 2 2 8.268 2 15.999c0 7.731 4.664 13.999 13.999 13.999Z" fill="url(#c)"/><path d="M15.999 29.998c9.334 0 13.999-6.268 13.999-14 0-7.73-4.665-13.998-14-13.998C6.665 2 2 8.268 2 15.999c0 7.731 4.664 13.999 13.999 13.999Z" fill="url(#d)" fill-opacity=".6"/><path fill="url(#e)" d="M4 16a5 5 0 1 0 10 0 5 5 0 1 0-10 0"/><path fill="url(#f)" d="M15 16.5a4.5 4.5 0 1 0 9 0 4.5 4.5 0 1 0-9 0"/><path d="M10.5 19a4.5 4.5 0 1 0 0-9 4.5 4.5 0 0 0 0 9ZM21.5 19a4.5 4.5 0 1 0 0-9 4.5 4.5 0 0 0 0 9Z" fill="#fff"/><path d="M12 17a2 2 0 1 0 0-4 2 2 0 0 0 0 4Z" fill="url(#g)"/><path d="M20 17a2 2 0 1 0 0-4 2 2 0 0 0 0 4Z" fill="url(#h)"/><path d="M10.5 5.5s-.5 3-4 3" stroke="url(#i)" stroke-width="1.25" stroke-linecap="round" stroke-linejoin="round"/><path d="M10.5 5.5s-.5 3-4 3" stroke="url(#j)" stroke-width="1.25" stroke-linecap="round" stroke-linejoin="round"/><path d="M21.5 5.5s.5 3 4 3" stroke="url(#k)" stroke-width="1.25" stroke-linecap="round" stroke-linejoin="round"/><path stroke="url(#l)" stroke-width="2" stroke-linecap="round" d="M14 22h4"/><path d="M10 19c1.167 0 3 .6 3 3s-1.833 3-3 3" stroke="url(#m)" stroke-width="2" stroke-linecap="round"/><path d="M22 19c-1.167 0-3 .6-3 3s1.833 3 3 3" stroke="url(#n)" stroke-width="2" stroke-linecap="round"/></g><defs><radialGradient id="b" cx="0" cy="0" r="1" gradientUnits="userSpaceOnUse" gradientTransform="rotate(100.923 6.61 11.342) scale(29.0258)"><stop stop-color="#00F397"/><stop offset=".493" stop-color="#00D26A"/><stop offset="1" stop-color="#8D65C5"/></radialGradient><radialGradient id="c" cx="0" cy="0" r="1" gradientUnits="userSpaceOnUse" gradientTransform="matrix(0 19.5 -19.5 0 16 12.5)"><stop offset=".811" stop-color="#A7A1F6" stop-opacity="0"/><stop offset=".973" stop-color="#A092FF"/></radialGradient><radialGradient id="d" cx="0" cy="0" r="1" gradientUnits="userSpaceOnUse" gradientTransform="matrix(-29 29 -29 -29 18 14)"><stop offset=".315" stop-opacity="0"/><stop offset="1"/></radialGradient><radialGradient id="e" cx="0" cy="0" r="1" gradientUnits="userSpaceOnUse" gradientTransform="rotate(135 3.936 8.725) scale(9.74236 5.04232)"><stop stop-color="#392108"/><stop offset="1" stop-color="#C87928" stop-opacity="0"/></radialGradient><radialGradient id="f" cx="0" cy="0" r="1" gradientUnits="userSpaceOnUse" gradientTransform="matrix(-5.75 5.75 -3.24597 -3.24597 23 13)"><stop stop-color="#392108"/><stop offset="1" stop-color="#C87928" stop-opacity="0"/></radialGradient><radialGradient id="j" cx="0" cy="0" r="1" gradientUnits="userSpaceOnUse" gradientTransform="matrix(2.5 3.5 -3.5 2.5 7 5)"><stop offset=".542" stop-color="#493032"/><stop offset=".807" stop-color="#5E445A"/><stop offset=".955" stop-color="#4A2C42"/></radialGradient><radialGradient id="k" cx="0" cy="0" r="1" gradientUnits="userSpaceOnUse" gradientTransform="rotate(125.538 11.213 8.933) scale(4.30116)"><stop stop-color="#C2B4B5"/><stop offset=".887" stop-color="#462B45"/><stop offset="1" stop-color="#4A2C42"/></radialGradient><radialGradient id="m" cx="0" cy="0" r="1" gradientUnits="userSpaceOnUse" gradientTransform="matrix(4 0 0 4 10 22)"><stop offset=".509" stop-color="#3E3537"/><stop offset=".707" stop-color="#523A4F"/><stop offset="1" stop-color="#6A5763"/></radialGradient><radialGradient id="n" cx="0" cy="0" r="1" gradientUnits="userSpaceOnUse" gradientTransform="matrix(-4 0 0 -4 22 22)"><stop offset=".509" stop-color="#3E3537"/><stop offset=".707" stop-color="#523A4F"/><stop offset="1" stop-color="#6A5763"/></radialGradient><linearGradient id="g" x1="20.615" y1="13" x2="19.927" y2="17.03" gradientUnits="userSpaceOnUse"><stop stop-color="#553B3E"/><stop offset="1" stop-color="#3D2432"/></linearGradient><linearGradient id="h" x1="20.615" y1="13" x2="19.927" y2="17.03" gradientUnits="userSpaceOnUse"><stop stop-color="#553B3E"/><stop offset="1" stop-color="#3D2432"/></linearGradient><linearGradient id="i" x1="9.5" y1="5" x2="9.5" y2="6.5" gradientUnits="userSpaceOnUse"><stop offset=".03" stop-color="#524049"/><stop offset="1" stop-color="#4A2C42"/></linearGradient><linearGradient id="l" x1="16" y1="21" x2="16" y2="23" gradientUnits="userSpaceOnUse"><stop stop-color="#4E3F45"/><stop offset=".212" stop-color="#5F4D56"/><stop offset=".957" stop-color="#51275A"/></linearGradient><clipPath id="a"><path fill="#fff" d="M0 0h32v32H0Z"/></clipPath></defs></svg>
